src/assets/filled/Convertshape.svg

<svg width="24" height="24" viewBox="0 0 24 24"  xmlns="http://www.w3.org/2000/svg">
<path d="M22 5.15V8.85C22 11.1 21.1 12 18.85 12H16.15C13.9 12 13 11.1 13 8.85V5.15C13 2.9 13.9 2 16.15 2H18.85C21.1 2 22 2.9 22 5.15Z" />
<path d="M11 15.15V18.85C11 21.1 10.1 22 7.85 22H5.15C2.9 22 2 21.1 2 18.85V15.15C2 12.9 2.9 12 5.15 12H7.85C10.1 12 11 12.9 11 15.15Z" />
<path d="M14.78 21.9995C14.51 21.9995 14.26 21.8495 14.13 21.6195C14 21.3795 14 21.0995 14.14 20.8595L15.11 19.2395C15.32 18.8795 15.78 18.7695 16.14 18.9795C16.5 19.1895 16.61 19.6495 16.4 20.0095L16.22 20.3095C18.69 19.6695 20.51 17.4295 20.51 14.7695C20.51 14.3595 20.85 14.0195 21.26 14.0195C21.67 14.0195 22 14.3595 22 14.7795C22 18.7595 18.76 21.9995 14.78 21.9995Z" />
<path d="M2.75 9.97C2.34 9.97 2 9.64 2 9.22C2 5.24 5.24 2 9.22 2C9.5 2 9.74 2.15 9.88 2.38C10.01 2.62 10.01 2.9 9.87 3.14L8.9 4.75C8.68 5.11 8.22 5.23 7.87 5.01C7.51 4.8 7.4 4.34 7.61 3.98L7.79 3.68C5.33 4.32 3.5 6.56 3.5 9.22C3.5 9.64 3.16 9.97 2.75 9.97Z" />
</svg>

<?xml version="1.0" encoding="UTF-8"?>
<svg width="24" height="24" viewBox="0 0 24 24" xmlns="http://www.w3.org/2000/svg">
 <path d="M22 5.15V8.85C22 11.1 21.1 12 18.85 12H16.15C13.9 12 13 11.1 13 8.85V5.15C13 2.9 13.9 2 16.15 2H18.85C21.1 2 22 2.9 22 5.15Z"/>
 <path d="M11 15.15V18.85C11 21.1 10.1 22 7.85 22H5.15C2.9 22 2 21.1 2 18.85V15.15C2 12.9 2.9 12 5.15 12H7.85C10.1 12 11 12.9 11 15.15Z"/>
 <path d="m14.78 22c-0.27 0-0.52-0.15-0.65-0.38-0.13-0.24-0.13-0.52 0.01-0.76l0.97-1.62c0.21-0.36 0.67-0.47 1.03-0.26s0.47 0.67 0.26 1.03l-0.18 0.3c2.47-0.64 4.29-2.88 4.29-5.54 0-0.41 0.34-0.75 0.75-0.75s0.74 0.34 0.74 0.76c0 3.98-3.24 7.22-7.22 7.22z"/>
 <path d="M2.75 9.97C2.34 9.97 2 9.64 2 9.22C2 5.24 5.24 2 9.22 2C9.5 2 9.74 2.15 9.88 2.38C10.01 2.62 10.01 2.9 9.87 3.14L8.9 4.75C8.68 5.11 8.22 5.23 7.87 5.01C7.51 4.8 7.4 4.34 7.61 3.98L7.79 3.68C5.33 4.32 3.5 6.56 3.5 9.22C3.5 9.64 3.16 9.97 2.75 9.97Z"/>
</svg>
